components/2.0/icon/icons/icon-html-22px.svg

<?xml version="1.0" encoding="UTF-8" standalone="no"?>
<svg width="22px" height="22px" viewBox="0 0 22 22" version="1.1" xmlns="http://www.w3.org/2000/svg" xmlns:xlink="http://www.w3.org/1999/xlink" xmlns:sketch="http://www.bohemiancoding.com/sketch/ns">
    <!-- Generator: Sketch 3.4.4 (17249) - http://www.bohemiancoding.com/sketch -->
    <title>icon-html-22px</title>
    <desc>Created with Sketch.</desc>
    <defs></defs>
    <g id="22px" stroke="none" stroke-width="1" fill="none" fill-rule="evenodd" sketch:type="MSPage">
        <g id="icon-html-22px" sketch:type="MSArtboardGroup" fill="#3D4752">
            <path d="M4.9996,6.0004 L0.9996,10.9994 L4.9996,16.0004 L7.0006,16.0004 L2.9996,10.9994 L7.0006,6.0004 L4.9996,6.0004 Z" id="Fill-1" sketch:type="MSShapeGroup"></path>
            <path d="M15.0004,6.0004 L19.0004,10.9994 L15.0004,16.0004 L17.0004,16.0004 L20.9994,10.9994 L17.0004,6.0004 L15.0004,6.0004 Z" id="Fill-2" sketch:type="MSShapeGroup"></path>
            <path d="M11.9998,2.9998 L7.9998,18.9998 L9.9998,18.9998 L13.9998,2.9998 L11.9998,2.9998 Z" id="Fill-3" sketch:type="MSShapeGroup"></path>
        </g>
    </g>
</svg>

<svg width="22" height="22" xmlns="http://www.w3.org/2000/svg"><g fill="#3D4752" fill-rule="evenodd"><path d="M5 6l-4 5 4 5h2l-4-5 4-5H5zM15 6l4 5-4 5h2l4-5-4-5h-2zM12 3L8 19h2l4-16h-2z"/></g></svg>
